!!!!SEGMENT: pl-sa--197-a-vi-1--005_anonim--requiem-es-sanctus.krn
!!!cenid: 17xx:1676
!!!COM: Anonim
!!!COM-rismID: pe30004985
!!!CDT:
!!!CNT:
!!!OPR: Requiem Es
!!!OTL: Sanctus
!!!OMV: 005
!!!PDT:
!!!AGN: Sacred; Requiem
!!!SMS-siglum: PL-SA
!!!SMS-shelfmark: 197/A VI 1
!!!SMS-shelfwork: 001-005 M
!!!SMS-variant:
!!!SMS-altvar:
!!!NIFC-rismSourceID: 1001070179
!!!NIFC-islandoraID:
!!!URL-pdf-islandora:
!!!URL-scan: https://bc.bdsandomierz.pl/dlibra/publication/1533/edition/1501/content @EN{Scan on Cyfrowa Biblioteka Diecezjalna w Sandomierzu} @PL{Skany w portalu Cyfrowa Biblioteka Diecezjalna w Sandomierzu}
!!!ONB-nifc: UWAGA: części Requiem: 1. Requiem, 2. Kirie, 3. Dies irae, 4. Domine Jesu Christe, 5. Sanctus, 6. Osanna, 7. Benedictus, 8. Agnus Dei, 9. Lux aeterna
!!!AIN: 1 alto 1 bass 1 soprn
!!!key: E-
**kern	**text	**kern	**text	**kern	**text
*part3	*part3	*part2	*part2	*part1	*part1
*staff3	*staff3	*staff2	*staff2	*staff1	*staff1
*I"Baſſo	*	*I"Alto	*	*I"Canto:.	*
*I'B	*	*I'A	*	*I'S	*
*ICvox	*	*ICvox	*	*ICvox	*
*Ibass	*	*Ialto	*	*Isoprn	*
*clefF4	*	*clefC3	*	*clefC1	*
*k[b-b-e-a-b-]	*	*k[e-b-a-]	*	*k[b-e-a-]	*
*E-:	*	*E-:	*	*E-:	*
*M3/4	*	*M3/4	*	*M3/4	*
=1	=1	=1	=1	=1	=1
!	!	!	!	!LO:TX:a:B:t=adagio	!
!LO:TX:t=P:problem:znaki [BB- B- E- A- AA-]	!	!LO:TX:t=P:problem:znaki [e- B- A-]	!	!LO:TX:t=P:problem:znaki [b- e- a-]	!
4r	.	4r	.	4r	.
!	!	!	!	!LO:TX:t=P:problem:all\right:global	!
4E-\	San-	4g\	San-	4b-\	San-
4F\	-Ctus	4f\	-ctus	4a-\	-ctus
=2	=2	=2	=2	=2	=2
4G\	San-	4e-\	San-	4g\	San-
(4F\	-Ctus	(4f\	-ctus	(4a-\	-ctus
4E-\)	.	4g\)	.	4b-\)	.
=3	=3	=3	=3	=3	=3
*	*	*	*	*	*ij
4BB-/	San-	4f\	San-	4b-\	San-
4E-\	-Ctus	4g\	-ctus	4b-\	-ctus
4r	.	4r	.	4r	.
*	*	*	*	*	*Xij
=4	=4	=4	=4	=4	=4
2.r	.	2.r	.	2.r	.
!	!	!LO:LB:g=original	!	!LO:LB:g=original	!
=5	=5	=5	=5	=5	=5
4r	.	4r	.	4r	.
4E-\	San-	4g\	San-	4b-\	San-
4D/	-Ctus	4f\	-ctus	4b-\	-ctus
=6	=6	=6	=6	=6	=6
4C/	San-	(4e-\	San-	4.b-\	San-
(4F\	.	4c\)	.	.	.
.	.	.	.	8cc\	-ctus
*	*	*	*	*	*ij
4FF/)	.	4f\	.	4an\	San-
=7	=7	=7	=7	=7	=7
4BB-/	-Ctus	4f\	-Ctus	4b-\	-ctus
4r	.	4r	.	4r	.
4r	.	4r	.	4r	.
*	*	*	*	*	*Xij
=8	=8	=8	=8	=8	=8
2.r	.	2.r	.	2.r	.
=9	=9	=9	=9	=9	=9
4r	.	4r	.	4r	.
4B-\	San-	4f\	San-	4dd\	San-
4B-\	-Ctus	4f\	-ctus	4dd\	-ctus
=10	=10	=10	=10	=10	=10
4.E-\	Do-	4.g\	Do-	4.ee-\	Do-
8E-\	-mi-	8g\	-mi-	8ee-\	-mi-
4E-\	-nus	4g\	-nus	4ee-\	-nus
!LO:LB:g=original	!	!	!	!	!
=11	=11	=11	=11	=11	=11
4r	.	4r	.	4r	.
4A-\	San-	4e-\	San-	4cc\	San-
4A-\	-Ctus	4e-\	-ctus	4cc\	-ctus
=12	=12	=12	=12	=12	=12
(2D/	De-	(4.f\	De-	4.dd\	De-
.	.	8d\)	.	(8cc\	.
4E-\)	.	4g\	-us	4b-\)	-us
=13	=13	=13	=13	=13	=13
!	!	!	!	!LO:SIC:s=Sab-	!
4AA-/	-us	(8f\L	Sab-	4cc\	Sa-
.	.	8e-\J)	.	.	.
!LO:SIC:s=Sab-	!	!	!	!	!
4.BB-/	Sa-	4e-\	-ba-	4.f/	-ba-
!	!	!LO:SIC:s=-oth	!	!	!
.	.	4d\	-[[ot]]	.	.
8BB-/	-ba-	.	.	8f/	-oth
=14	=14	=14	=14	=14	=14
!	!	!LO:SIC:s=-oth	!	!	!
4E-\	-oth	4e-\	ot	4g/	Do-
4B-\	Do-	4d\	Do-	4f/	-mi-
8B-\	-mi-	8d\	-mi-	8f/	-nus
8B-\	-nus	8d\	-nus	8f/	.
!	!	!	!	!LO:LB:g=original	!
=15	=15	=15	=15	=15	=15
4.G\	De-	4.e-\	De-	(4.g\	[De-
8F\	.	8f\	.	8a-\)	.
4E-\	-us	4g\	-us	4b-\	-us
!	!	!LO:LB:g=original	!	!	!
=16	=16	=16	=16	=16	=16
!LO:SIC:s=Sab-	!	!	!	!	!
4A-\	Sa-	(8f\L	Sab-	4.cc\	Sab-
.	.	8e-\J)	.	.	.
(4B-\	.	4e-\	.	.	.
.	.	.	.	8f/	.
4BB-/)	-ba-	4d\	-ba-	4f/	-ba-
=17	=17	=17	=17	=17	=17
*2\right	*	*2\right	*	*	*
2E-\	-oth	2e-\	-oth	2g\	-oth]
4r	.	4ryy	.	4r	.
=18	=18	=18	=18	=18	=18
2.r	.	2.r	.	2.r	.
=19	=19	=19	=19	=19	=19
2.r	.	2.r	.	2.r	.
=20	=20	=20	=20	=20	=20
2.r	.	2.r	.	2.r	.
=21	=21	=21	=21	=21	=21
!LO:TX:b:t=pleni sunt \ntacet	!	!LO:TX:b:t=ple\nni sunt tacet	!	!LO:TX:b:t=Pleni Sunt tacet \nTenor	!
2.r	.	2.r	.	2.r	.
==	==	==	==	==	==
*-	*-	*-	*-	*-	*-
!!!system-decoration: [(s1,s2,s3)]
!!!ENC: Andrzej Borzym
!!!END: 2020-12-27
!!!ENC: Jan Barakat
!!!END: 2022-06-03
